public/images/icn-usage.svg

<svg width="24" height="24" viewBox="0 0 24 24" fill="none" xmlns="http://www.w3.org/2000/svg">
<g id="icn-usage">
<g id="Vector">
<path d="M21.0457 5.32586C19.7957 5.12586 18.7057 6.08586 18.7057 7.29586V5.08586C18.7057 4.08586 18.0257 3.16586 17.0457 3.00586C15.7957 2.80586 14.7057 3.76586 14.7057 4.97586V3.86586C14.7057 2.86586 14.0257 1.94586 13.0457 1.78586C11.7957 1.58586 10.7057 2.54586 10.7057 3.75586V10.0959V5.08586C10.7057 4.08586 10.0257 3.16586 9.04574 3.00586C7.79574 2.80586 6.70574 3.76586 6.70574 4.97586V12.2859L6.49574 12.4159L5.57574 10.6059C5.10574 9.67586 3.99574 9.16586 3.02574 9.54586C1.90574 9.98586 1.42574 11.2759 1.95574 12.3159L4.52574 17.3859C5.52574 19.1159 7.19574 20.3459 9.13574 20.7959L10.9057 21.2059C13.3657 21.7759 15.9557 21.5559 18.2857 20.5759C20.9657 19.4459 22.6957 16.8259 22.6957 13.9259V7.38586C22.6957 6.38586 22.0157 5.46586 21.0357 5.30586L21.0457 5.32586Z" fill="white"/>
<path fill-rule="evenodd" clip-rule="evenodd" d="M10.7464 21.9556C11.7064 22.1756 12.6764 22.2856 13.6464 22.2856V22.2656C15.3264 22.2656 17.0064 21.9356 18.5864 21.2656C21.5464 20.0156 23.4564 17.1356 23.4564 13.9256V7.38563C23.4564 5.99563 22.4764 4.77563 21.1664 4.56563C20.5664 4.46563 19.9664 4.56563 19.4464 4.83563C19.3464 3.54563 18.3964 2.45563 17.1664 2.25563C16.4764 2.14563 15.7764 2.29563 15.2064 2.66563C14.8364 1.82563 14.0764 1.18563 13.1664 1.03563C12.3564 0.905632 11.5464 1.13563 10.9264 1.65563C10.6064 1.93563 10.3564 2.28563 10.1864 2.66563C9.87637 2.46563 9.53637 2.32563 9.16637 2.26563C8.35637 2.13563 7.54637 2.35563 6.92637 2.88563C6.30637 3.41563 5.95637 4.17563 5.95637 4.98563V9.82563C5.20637 8.83563 3.88637 8.41563 2.75637 8.85563C2.02637 9.13563 1.45637 9.71563 1.17637 10.4356C0.906371 11.1656 0.946371 11.9756 1.29637 12.6656L3.88637 17.7756C4.98637 19.6756 6.83637 21.0456 8.97637 21.5456L10.7464 21.9556ZM3.30637 10.2656C3.43637 10.2056 3.56637 10.1856 3.70637 10.1856L3.73637 10.1656C4.21637 10.1656 4.69637 10.4656 4.94637 10.9456L5.74444 12.5157C5.78062 12.7958 5.97373 13.0414 6.25574 13.1354C8.03574 13.7254 10.5757 15.0554 10.6857 16.1754C10.7257 16.5654 11.0557 16.8554 11.4357 16.8554L11.4257 16.8454H11.4957C11.9157 16.8054 12.2157 16.4354 12.1757 16.0254C11.9878 13.9911 9.0498 12.5909 7.50637 11.9884V4.97563C7.50637 4.61563 7.66637 4.26563 7.94637 4.02563C8.22637 3.78563 8.58637 3.68563 8.96637 3.74563C9.55637 3.84563 9.99637 4.41563 9.99637 5.08563V10.0956C9.99637 10.5056 10.3364 10.8456 10.7464 10.8456C11.1564 10.8456 11.4964 10.5056 11.4964 10.0956V3.75563C11.4964 3.39563 11.6564 3.04563 11.9364 2.80563C12.2164 2.56563 12.5764 2.46563 12.9564 2.52563C13.5464 2.62563 13.9864 3.19563 13.9864 3.86563V4.81351C13.9729 4.86911 13.9658 4.92698 13.9658 4.98633V10.1063C13.9658 10.5163 14.3058 10.8563 14.7158 10.8563C15.1258 10.8563 15.4658 10.5163 15.4658 10.1063V5.14845C15.4792 5.09285 15.4864 5.03498 15.4864 4.97563C15.4864 4.60563 15.6464 4.26563 15.9264 4.02563C16.2064 3.78563 16.5664 3.68563 16.9464 3.74563C17.5364 3.84563 17.9764 4.41563 17.9764 5.08563V7.17062C17.9694 7.21111 17.9658 7.25264 17.9658 7.29492V10.1049C17.9658 10.5149 18.3058 10.8549 18.7158 10.8549C19.1258 10.8549 19.4658 10.5149 19.4658 10.1049V7.41994C19.4728 7.37944 19.4764 7.33791 19.4764 7.29563C19.4764 6.92563 19.6364 6.58563 19.9164 6.34563C20.1964 6.10563 20.5564 6.00563 20.9364 6.06563C21.5264 6.16563 21.9664 6.73563 21.9664 7.40563V13.9456C21.9664 16.5556 20.4064 18.8956 18.0064 19.9056C15.8064 20.8256 13.4064 21.0356 11.0864 20.4956L9.31637 20.0856C7.58637 19.6856 6.07637 18.5656 5.20637 17.0656L2.63637 11.9956C2.47637 11.6856 2.45637 11.3156 2.58637 10.9856C2.71637 10.6556 2.96637 10.3956 3.30637 10.2656Z" fill="#26807C"/>
</g>
</g>
</svg>

<svg xmlns="http://www.w3.org/2000/svg" width="24" height="24" fill="none"><path fill="#fff" d="M21.046 5.326c-1.25-.2-2.34.76-2.34 1.97v-2.21c0-1-.68-1.92-1.66-2.08-1.25-.2-2.34.76-2.34 1.97v-1.11c0-1-.68-1.92-1.66-2.08-1.25-.2-2.34.76-2.34 1.97v6.34-5.01c0-1-.68-1.92-1.66-2.08-1.25-.2-2.34.76-2.34 1.97v7.31l-.21.13-.92-1.81c-.47-.93-1.58-1.44-2.55-1.06-1.12.44-1.6 1.73-1.07 2.77l2.57 5.07a7.2 7.2 0 0 0 4.61 3.41l1.77.41c2.46.57 5.05.35 7.38-.63a7.21 7.21 0 0 0 4.41-6.65v-6.54c0-1-.68-1.92-1.66-2.08z"/><path fill="#26807C" fill-rule="evenodd" d="M10.746 21.956c.96.22 1.93.33 2.9.33v-.02c1.68 0 3.36-.33 4.94-1a7.95 7.95 0 0 0 4.87-7.34v-6.54c0-1.39-.98-2.61-2.29-2.82-.6-.1-1.2 0-1.72.27-.1-1.29-1.05-2.38-2.28-2.58-.69-.11-1.39.04-1.96.41-.37-.84-1.13-1.48-2.04-1.63-.81-.13-1.62.1-2.24.62-.32.28-.57.63-.74 1.01-.31-.2-.65-.34-1.02-.4a2.75 2.75 0 0 0-2.24.62 2.75 2.75 0 0 0-.97 2.1v4.84c-.75-.99-2.07-1.41-3.2-.97-.73.28-1.3.86-1.58 1.58-.27.73-.23 1.54.12 2.23l2.59 5.11c1.1 1.9 2.95 3.27 5.09 3.77zm-7.44-11.69c.13-.06.26-.08.4-.08l.03-.02c.48 0 .96.3 1.21.78l.798 1.57a.76.76 0 0 0 .512.62c1.78.59 4.32 1.92 4.43 3.04.04.39.37.68.75.68l-.01-.01h.07c.42-.04.72-.41.68-.82-.188-2.035-3.126-3.435-4.67-4.038V4.976c0-.36.16-.71.44-.95s.64-.34 1.02-.28c.59.1 1.03.67 1.03 1.34v5.01c0 .41.34.75.75.75s.75-.34.75-.75v-6.34c0-.36.16-.71.44-.95s.64-.34 1.02-.28c.59.1 1.03.67 1.03 1.34v.948a.7.7 0 0 0-.02.172v5.12c0 .41.34.75.75.75s.75-.34.75-.75V5.148a.7.7 0 0 0 .02-.172c0-.37.16-.71.44-.95s.64-.34 1.02-.28c.59.1 1.03.67 1.03 1.34V7.17a1 1 0 0 0-.01.124v2.81c0 .41.34.75.75.75s.75-.34.75-.75V7.42a1 1 0 0 0 .01-.124c0-.37.16-.71.44-.95s.64-.34 1.02-.28c.59.1 1.03.67 1.03 1.34v6.54c0 2.61-1.56 4.95-3.96 5.96-2.2.92-4.6 1.13-6.92.59l-1.77-.41a6.47 6.47 0 0 1-4.11-3.02l-2.57-5.07c-.16-.31-.18-.68-.05-1.01s.38-.59.72-.72" clip-rule="evenodd"/></svg>
